X:0
T:Scots Wha Hae
G:song or march
M:2/4
L:1/8
Q:1/4=80
K:EMix
E|E2 E>C|E>F A>A|F2  F>E|F>G AB |c2  B>A|A>B c>B|A>F F>E|E3||
c|c2 c>B|c>d e>c|c<B B>A|B>c d>f|e>c B>A|A>B c>B|A>F F>E|E3|]

which would be dorian/mixolydian hexatonic except for the use of the G in
the rising sequence in bar 4.  Scale patterns and sequences often result
in gaps getting filled in; they are more frequent in English and Irish
music, which is why they use gapped scales less often than Scottish tunes.

Distinct rising/falling mode occurs frequently in Western classical music
with minor-key tunes (as "sharpened leading notes").  These asymmetric
scales are more common in the Lowlands, perhaps because harp and bagpipes
were not such dominant influences.  (They're also common in Simon Fraser's
Highland music transcriptions of  from the early 19th century, but Fraser
was equally unreliable as a historical or musical source: he wrote what he
imagined he heard - Highland peasants trained to sing Mozart).

The seven-note version is called the MELODIC MINOR scale.

